X:1
C: T. Pymar
M: none
L:1/2
%%staves [(S A) (T B)]
K:G
V:S clef=treble
G2 | G B | E2 || F2 | G B | B A | G2 |]
V:A clef=treble
D2 | E ^D | E2 || =D2 | D D | D C | B,2 |]
V:T clef=bass octave=-1
B2 | B A | G2 || A2 | G G | G F | G2 |]
V:B clef=bass octave=-1
G2 | E B, | C2 || C2 | B, G, | D D | G,2 |]
